flaticon/army-badges/barbed-wire.svg

<svg xmlns="http://www.w3.org/2000/svg" width="32" height="32" viewBox="0 0 24 24">
    <path d="M23.515625 17.1875L20.96875 17.625 21.394531 17.027344C21.554688 16.828125 21.515625 16.585938 21.316406 16.46875 21.117188 16.308594 20.875 16.347656 20.753906 16.546875L20.019531 17.582031 18.957031 16.828125C18.757812 16.667969 18.515625 16.707031 18.398438 16.90625 18.238281 17.105469 18.277344 17.347656 18.476562 17.464844L19.144531 17.941406 12.703125 19.050781 13.121094 18.464844C13.28125 18.265625 13.238281 18.027344 13.039062 17.90625 12.839844 17.746094 12.601562 17.785156 12.480469 17.988281L11.726562 19.046875 10.679688 18.304688C10.480469 18.144531 10.242188 18.1875 10.121094 18.386719 9.960938 18.585938 10 18.824219 10.199219 18.945312L10.808594 19.378906 4.4375 20.476562 4.84375 19.90625C5.003906 19.707031 4.964844 19.464844 4.765625 19.34375 4.5625 19.1875 4.324219 19.226562 4.203125 19.425781L3.449219 20.488281 2.40625 19.746094C2.203125 19.585938 1.964844 19.625 1.84375 19.824219 1.683594 20.023438 1.726562 20.265625 1.925781 20.386719L2.527344 20.804688.324219 21.183594C.125 21.226562-.0351562 21.464844.0078125 21.664062.046875 21.863281.207031 21.984375.40625 21.984375.445312 21.984375.445312 21.984375.484375 21.984375L2.652344 21.609375 2.246094 22.183594C2.085938 22.382812 2.125 22.625 2.324219 22.742188 2.40625 22.785156 2.484375 22.824219 2.566406 22.824219 2.726562 22.824219 2.84375 22.785156 2.882812 22.664062L3.648438 21.589844 4.722656 22.34375C4.804688 22.382812 4.882812 22.425781 4.964844 22.425781 5.082031 22.425781 5.203125 22.34375 5.242188 22.265625 5.402344 22.0625 5.363281 21.824219 5.164062 21.703125L4.566406 21.28125 10.917969 20.1875 10.519531 20.746094C10.359375 20.945312 10.402344 21.183594 10.601562 21.304688 10.679688 21.34375 10.761719 21.382812 10.839844 21.382812 10.960938 21.382812 11.121094 21.304688 11.160156 21.226562L11.914062 20.164062 12.960938 20.90625C13.039062 20.945312 13.121094 20.984375 13.199219 20.984375 13.359375 20.984375 13.480469 20.90625 13.519531 20.824219 13.679688 20.625 13.640625 20.386719 13.4375 20.265625L12.855469 19.851562 19.183594 18.761719 18.796875 19.304688C18.636719 19.503906 18.675781 19.746094 18.875 19.867188 18.957031 19.90625 19.035156 19.945312 19.117188 19.945312 19.238281 19.945312 19.355469 19.867188 19.4375 19.785156L20.210938 18.695312 21.234375 19.425781C21.316406 19.464844 21.394531 19.503906 21.476562 19.503906 21.59375 19.503906 21.714844 19.464844 21.796875 19.347656 21.953125 19.144531 21.914062 18.90625 21.714844 18.785156L21.191406 18.414062 23.675781 17.988281C23.875 17.945312 24.035156 17.707031 23.992188 17.507812 23.953125 17.308594 23.714844 17.148438 23.515625 17.1875zM.40625 6.792969C.445312 6.792969.445312 6.792969.484375 6.792969L2.679688 6.378906 2.246094 6.992188C2.085938 7.191406 2.125 7.433594 2.324219 7.550781 2.40625 7.589844 2.484375 7.632812 2.566406 7.632812 2.726562 7.632812 2.84375 7.589844 2.882812 7.472656L3.648438 6.398438 4.722656 7.152344C4.804688 7.191406 4.882812 7.230469 4.964844 7.230469 5.082031 7.230469 5.203125 7.152344 5.242188 7.070312 5.402344 6.871094 5.363281 6.632812 5.164062 6.511719L4.496094 6.039062 11.050781 4.804688 10.519531 5.550781C10.359375 5.753906 10.402344 5.992188 10.601562 6.113281 10.679688 6.152344 10.761719 6.191406 10.839844 6.191406 10.960938 6.191406 11.121094 6.113281 11.160156 5.992188L11.894531 4.957031 12.960938 5.710938C13.039062 5.753906 13.121094 5.792969 13.199219 5.792969 13.359375 5.792969 13.480469 5.710938 13.519531 5.632812 13.679688 5.433594 13.640625 5.191406 13.4375 5.074219L12.644531 4.507812 19.421875 3.234375 18.796875 4.113281C18.636719 4.3125 18.675781 4.554688 18.875 4.671875 18.957031 4.714844 19.035156 4.753906 19.117188 4.753906 19.238281 4.753906 19.355469 4.671875 19.4375 4.59375L20.210938 3.503906 21.234375 4.234375C21.316406 4.273438 21.394531 4.3125 21.476562 4.3125 21.59375 4.3125 21.714844 4.273438 21.796875 4.152344 21.953125 3.953125 21.914062 3.714844 21.714844 3.59375L20.832031 2.96875 23.675781 2.433594C23.875 2.394531 24.035156 2.15625 23.992188 1.953125 23.953125 1.753906 23.753906 1.59375 23.515625 1.632812L21.234375 2.0625 21.394531 1.835938C21.554688 1.632812 21.515625 1.394531 21.316406 1.273438 21.117188 1.113281 20.875 1.15625 20.753906 1.355469L20.101562 2.277344 19.910156 2.3125 18.957031 1.632812C18.757812 1.476562 18.515625 1.515625 18.398438 1.714844 18.238281 1.914062 18.277344 2.15625 18.476562 2.273438L18.820312 2.515625 12.828125 3.644531 13.121094 3.234375C13.238281 3.074219 13.199219 2.792969 13.039062 2.714844 12.839844 2.554688 12.601562 2.59375 12.480469 2.792969L11.730469 3.847656 11.71875 3.851562 10.679688 3.113281C10.480469 2.953125 10.242188 2.992188 10.121094 3.195312 10 3.394531 10.039062 3.632812 10.199219 3.753906L10.628906 4.054688 4.492188 5.210938 4.84375 4.714844C5.003906 4.511719 4.964844 4.273438 4.765625 4.152344 4.5625 3.992188 4.324219 4.035156 4.203125 4.234375L3.449219 5.296875 2.40625 4.554688C2.203125 4.433594 1.964844 4.472656 1.84375 4.632812 1.726562 4.832031 1.765625 5.074219 1.925781 5.191406L2.488281 5.585938.324219 5.992188C.125 6.03125-.0351562 6.273438.0078125 6.472656.046875 6.671875.207031 6.792969.40625 6.792969zM.324219 9.992188L2.480469 10.394531 1.925781 10.789062C1.765625 10.949219 1.726562 11.191406 1.84375 11.390625 1.925781 11.507812 2.046875 11.550781 2.164062 11.550781 2.246094 11.550781 2.324219 11.507812 2.40625 11.46875L3.441406 10.71875 4.203125 11.789062C4.285156 11.910156 4.402344 11.949219 4.523438 11.949219 4.605469 11.949219 4.683594 11.910156 4.761719 11.871094 4.921875 11.75 4.964844 11.507812 4.84375 11.308594L4.457031 10.765625 10.671875 11.933594 10.199219 12.269531C10.039062 12.390625 10 12.628906 10.121094 12.828125 10.199219 12.949219 10.320312 12.988281 10.441406 12.988281 10.519531 12.988281 10.601562 12.949219 10.679688 12.910156L11.726562 12.167969 12.480469 13.230469C12.558594 13.347656 12.679688 13.386719 12.800781 13.386719 12.878906 13.386719 12.960938 13.386719 13.039062 13.308594 13.199219 13.1875 13.238281 12.949219 13.121094 12.75L12.828125 12.339844 18.820312 13.464844 18.476562 13.707031C18.316406 13.828125 18.277344 14.066406 18.398438 14.269531 18.476562 14.386719 18.597656 14.429688 18.714844 14.429688 18.796875 14.429688 18.875 14.429688 18.957031 14.347656L19.910156 13.671875 20.046875 13.695312 20.753906 14.707031C20.835938 14.828125 20.957031 14.867188 21.074219 14.867188 21.15625 14.867188 21.234375 14.828125 21.316406 14.746094 21.476562 14.628906 21.515625 14.386719 21.394531 14.1875L21.199219 13.914062 23.515625 14.347656C23.554688 14.347656 23.554688 14.347656 23.59375 14.347656 23.792969 14.347656 23.953125 14.226562 23.992188 14.027344 24.035156 13.789062 23.875 13.589844 23.675781 13.546875L20.832031 13.015625 21.714844 12.390625C21.875 12.269531 21.914062 12.027344 21.796875 11.828125 21.675781 11.667969 21.433594 11.628906 21.234375 11.75L20.191406 12.492188 19.4375 11.429688C19.316406 11.269531 19.078125 11.230469 18.875 11.347656 18.714844 11.46875 18.675781 11.710938 18.796875 11.910156L19.378906 12.742188 12.6875 11.484375 13.4375 10.949219C13.597656 10.828125 13.640625 10.589844 13.519531 10.390625 13.398438 10.230469 13.160156 10.191406 12.960938 10.308594L11.914062 11.050781 11.160156 9.988281C11.039062 9.832031 10.800781 9.789062 10.601562 9.910156 10.441406 10.03125 10.402344 10.269531 10.519531 10.46875L11.019531 11.167969 4.507812 9.945312 5.164062 9.46875C5.324219 9.351562 5.363281 9.070312 5.242188 8.910156 5.125 8.75 4.882812 8.710938 4.683594 8.832031L3.621094 9.585938 2.882812 8.550781C2.765625 8.390625 2.523438 8.351562 2.324219 8.472656 2.164062 8.589844 2.125 8.832031 2.246094 9.03125L2.648438 9.597656.484375 9.191406C.246094 9.152344.046875 9.3125.0078125 9.511719-.0351562 9.75.125 9.949219.324219 9.992188zM.324219 9.992188"/>
</svg>

<svg xmlns="http://www.w3.org/2000/svg" width="32" height="32" viewBox="0 0 24 24">
    <path d="M23.516 17.188l-2.547.437.426-.598c.16-.199.12-.441-.079-.558-.199-.16-.441-.121-.562.078l-.734 1.035-1.063-.754c-.2-.16-.441-.121-.559.078-.16.2-.12.442.079.559l.668.476-6.442 1.11.418-.586c.16-.2.117-.438-.082-.559-.2-.16-.437-.12-.559.082l-.753 1.059-1.047-.742c-.2-.16-.438-.117-.559.082-.16.199-.121.437.078.558l.61.434-6.371 1.098.406-.57c.16-.2.12-.442-.078-.563-.204-.157-.442-.117-.563.082l-.754 1.062-1.043-.742c-.203-.16-.441-.121-.562.078-.16.2-.117.442.082.563l.601.418-2.203.379c-.199.043-.36.28-.316.48.039.2.199.32.398.32h.078l2.168-.375-.406.575c-.16.199-.121.441.078.558.082.043.16.082.242.082.16 0 .278-.039.317-.16l.765-1.074 1.075.754c.082.039.16.082.242.082a.34.34 0 0 0 .277-.16c.16-.203.121-.442-.078-.563l-.598-.422 6.352-1.093-.398.558c-.16.2-.118.438.082.559a.57.57 0 0 0 .238.078c.12 0 .281-.078.32-.156l.754-1.063 1.047.742a.57.57 0 0 0 .238.078c.16 0 .281-.078.32-.16.16-.199.122-.437-.082-.558l-.582-.414 6.329-1.09-.387.543c-.16.199-.121.441.078.562.082.04.16.078.242.078.121 0 .238-.078.32-.16l.774-1.09 1.023.73c.082.04.16.079.243.079.117 0 .238-.04.32-.156.156-.203.117-.442-.082-.563l-.524-.37 2.485-.427c.199-.043.36-.281.316-.48a.437.437 0 0 0-.476-.32zm0 0M.406 6.793h.078l2.196-.414-.434.613c-.16.2-.121.442.078.559.082.039.16.082.242.082.16 0 .278-.043.317-.16l.765-1.075 1.075.754c.082.04.16.078.242.078.117 0 .238-.078.277-.16.16-.199.121-.437-.078-.558l-.668-.473 6.555-1.234-.531.746c-.16.203-.118.441.082.562a.57.57 0 0 0 .238.078c.12 0 .281-.078.32-.199l.735-1.035 1.066.754c.078.043.16.082.238.082.16 0 .281-.082.32-.16.16-.2.122-.442-.082-.559l-.792-.566 6.777-1.274-.625.88c-.16.199-.121.44.078.558.082.043.16.082.242.082.121 0 .238-.082.32-.16l.774-1.09 1.023.73c.082.04.16.079.243.079.117 0 .238-.04.32-.16.156-.2.117-.438-.082-.56l-.883-.624 2.844-.535c.199-.04.36-.278.316-.48a.413.413 0 0 0-.476-.321l-2.282.43.16-.227c.16-.203.122-.441-.078-.563-.199-.16-.441-.117-.562.082l-.652.922-.192.035-.953-.68c-.2-.155-.441-.116-.559.083-.16.2-.12.441.079.558l.343.243-5.992 1.129.293-.41c.117-.16.078-.442-.082-.52-.2-.16-.437-.121-.559.078l-.75 1.055-.011.004-1.04-.739c-.199-.16-.437-.12-.558.082-.121.2-.082.438.078.559l.43.3-6.137 1.157.352-.496c.16-.203.12-.442-.078-.563-.204-.16-.442-.117-.563.082L3.45 5.297l-1.043-.742c-.203-.121-.441-.082-.562.078-.117.199-.078.441.082.558l.562.395-2.164.406c-.199.04-.36.281-.316.48.039.2.199.321.398.321zm0 0M.324 9.992l2.156.403-.554.394c-.16.16-.2.402-.082.602.082.117.203.16.32.16.082 0 .16-.043.242-.082l1.035-.75.762 1.07c.082.121.2.16.32.16.082 0 .16-.039.239-.078.16-.121.203-.363.082-.562l-.387-.543 6.215 1.168-.473.336c-.16.12-.199.359-.078.558.078.121.2.16.32.16a.57.57 0 0 0 .239-.078l1.047-.742.753 1.062c.079.118.2.157.32.157.079 0 .16 0 .24-.078.16-.121.198-.36.081-.559l-.293-.41 5.992 1.125-.343.242c-.16.121-.2.36-.079.563.079.117.2.16.317.16.082 0 .16 0 .242-.082l.953-.676.137.023.707 1.012c.082.121.203.16.32.16.082 0 .16-.039.242-.12.16-.118.2-.36.079-.56l-.196-.273 2.317.434h.078c.199 0 .36-.121.398-.32a.414.414 0 0 0-.316-.481l-2.844-.531.883-.625c.16-.121.2-.364.082-.563-.121-.16-.363-.2-.563-.078l-1.043.742-.753-1.062c-.122-.16-.36-.2-.563-.082-.16.12-.2.363-.078.562l.582.832-6.692-1.258.75-.535c.16-.12.204-.36.083-.558-.122-.16-.36-.2-.56-.082l-1.046.742-.754-1.063c-.12-.156-.36-.199-.558-.078-.16.121-.2.36-.082.559l.5.699-6.512-1.223.656-.476c.16-.117.2-.399.078-.559-.117-.16-.36-.2-.558-.078l-1.063.754-.738-1.035c-.117-.16-.36-.2-.559-.078-.16.117-.199.359-.078.558l.402.567L.484 9.19a.413.413 0 0 0-.476.32.414.414 0 0 0 .316.481zm0 0"/>
</svg>
